X: 115103
Q: "Strathspey."
M: C
L: 1/8
K: A
uE |\
vA<uA vc>uA ve>uc e<a | A<A c>A d/c/B/A/ G<B |\
ue |\
!1!a!0!A !3!c'!0!A !4!e'!0!A !3!c'!0!A | aA c'A {c'}b>a b<c' |
aA c'A e'A c'A | (3!3!def (3edB cA Ae |\
aA c'A e'A c'A |  aA c'A {c'}b>a b<c' |\
(3!0!A!2!ce (3ecA (3def (3fdB | (3cde (3fbg a2- a |]


